packages/web-icons/svgs/closeq.svg

<svg viewBox="0 0 58 48" xmlns="http://www.w3.org/2000/svg" class="ridi_icon"><path d="M34.8 19.2c2.1 2.1 4.7 3.2 7.5 3.2 1.6 0 2.4.2 2.7.6.4.5.2 1.6-.2 3.2-.8 3.3-2.4 6.2-4.8 8.8-2.4 2.5-5.5 4.5-9.1 6.1l3.2 6.9c3.3-1.2 6.4-2.9 9.3-5 2.9-2.1 5.4-4.5 7.5-7.4 2.1-2.7 3.8-5.9 5-9.3 1.2-3.5 1.9-7 1.9-10.7 0-4.3-1.2-8-3.7-11-2.4-3-5.6-4.5-9.7-4.5s-7 1.2-9.3 3.5c-2.3 2.3-3.3 5-3.3 8.4-.1 2.7.9 5.1 3 7.2zm-30.3 0c2.1 2.1 4.7 3.2 7.5 3.2 1.3 0 2.1.2 2.5.6.4.5.2 1.6-.2 3.2-.7 3.2-2.4 6.1-4.9 8.7C7 37.5 3.9 39.6.3 41l3.3 6.9c3.2-1.2 6.3-2.9 9.2-5 2.9-2.1 5.4-4.7 7.4-7.4 2.1-2.7 3.8-5.9 5-9.3 1.2-3.4 1.9-7 1.9-10.7 0-4.3-1.2-8-3.6-11C21.1 1.5 18 0 13.9 0c-3.9 0-7 1.2-9.3 3.5-2.3 2.3-3.3 5-3.3 8.4 0 2.8 1.1 5.2 3.2 7.3z"/></svg>

<?xml version="1.0" encoding="UTF-8"?>
<svg width="58px" height="48px" viewBox="0 0 58 48" version="1.1" xmlns="http://www.w3.org/2000/svg">
  <!-- Generator: Sketch 41.2 (35397) - http://www.bohemiancoding.com/sketch -->
  <title>closeq</title>
  <desc>Created with Sketch.</desc>
  <defs></defs>
  <g id="Page-1" stroke="none" stroke-width="1" fill="none" fill-rule="evenodd">
    <g id="closeq" fill="#000000">
      <g id="레이어_1">
        <path d="M34.8,19.2 C36.9,21.3 39.5,22.4 42.3,22.4 C43.9,22.4 44.7,22.6 45,23 C45.4,23.5 45.2,24.6 44.8,26.2 C44,29.5 42.4,32.4 40,35 C37.6,37.5 34.5,39.5 30.9,41.1 L34.1,48 C37.4,46.8 40.5,45.1 43.4,43 C46.3,40.9 48.8,38.5 50.9,35.6 C53,32.9 54.7,29.7 55.9,26.3 C57.1,22.8 57.8,19.3 57.8,15.6 C57.8,11.3 56.6,7.6 54.1,4.6 C51.7,1.6 48.5,0.1 44.4,0.1 C40.3,0.1 37.4,1.3 35.1,3.6 C32.8,5.9 31.8,8.6 31.8,12 C31.7,14.7 32.7,17.1 34.8,19.2 L34.8,19.2 Z M4.5,19.2 C6.6,21.3 9.2,22.4 12,22.4 C13.3,22.4 14.1,22.6 14.5,23 C14.9,23.5 14.7,24.6 14.3,26.2 C13.6,29.4 11.9,32.3 9.4,34.9 C7,37.5 3.9,39.6 0.3,41 L3.6,47.9 C6.8,46.7 9.9,45 12.8,42.9 C15.7,40.8 18.2,38.2 20.2,35.5 C22.3,32.8 24,29.6 25.2,26.2 C26.4,22.8 27.1,19.2 27.1,15.5 C27.1,11.2 25.9,7.5 23.5,4.5 C21.1,1.5 18,0 13.9,0 C10,0 6.9,1.2 4.6,3.5 C2.3,5.8 1.3,8.5 1.3,11.9 C1.3,14.7 2.4,17.1 4.5,19.2 L4.5,19.2 Z" id="Shape"></path>
      </g>
    </g>
  </g>
</svg>
